src/icons/posthtml.svg

<svg viewBox="0 0 24 24" xmlns="http://www.w3.org/2000/svg">
  <path
    d="M6.17599 16.747C7.44699 16.747 8.64699 16.253 9.50299 15.397L15.706 9.89099C15.9836 9.61246 16.3138 9.39185 16.6774 9.24199C17.041 9.09212 17.4307 9.01598 17.824 9.01799C19.474 9.01799 20.824 10.35 20.824 12C20.824 13.65 19.474 14.982 17.824 14.982C17.4226 14.9824 17.0253 14.9022 16.6555 14.7462C16.2856 14.5903 15.9509 14.3617 15.671 14.074L14.674 13.191L13.324 14.374L14.453 15.353C15.353 16.253 16.553 16.747 17.823 16.747C20.453 16.747 22.588 14.612 22.588 12C22.588 9.38799 20.453 7.25299 17.824 7.25299C16.553 7.25299 15.353 7.74699 14.497 8.60299L8.29399 14.109C8.01648 14.3874 7.68645 14.6079 7.32304 14.7578C6.95963 14.9077 6.57008 14.9839 6.17699 14.982C4.52699 14.982 3.17699 13.65 3.17699 12C3.17699 10.35 4.52699 9.01799 6.17699 9.01799C6.97099 9.01799 7.72899 9.32599 8.32899 9.92599L9.35299 10.818L10.676 9.63499L9.54699 8.64699C9.104 8.20579 8.57829 7.85634 8 7.61868C7.42171 7.38101 6.80221 7.2598 6.17699 7.26199C3.54699 7.26199 1.41199 9.38799 1.41199 12C1.41119 12.625 1.534 13.2441 1.77334 13.8215C2.01268 14.3989 2.36383 14.9232 2.80659 15.3644C3.24935 15.8056 3.77498 16.1549 4.35324 16.3922C4.93149 16.6294 5.55096 16.75 6.17599 16.747Z"
    fill="#F57F17"
  />
  <path
    d="M17.824 6.96301C16.479 6.96301 15.205 7.48301 14.293 8.39501L14.291 8.39601L8.094 13.896L8.088 13.902C7.83781 14.1542 7.53985 14.3539 7.21155 14.4896C6.88326 14.6252 6.53121 14.694 6.176 14.692C4.682 14.692 3.466 13.492 3.466 12C3.466 10.508 4.682 9.30901 6.176 9.30901C6.894 9.30901 7.574 9.58401 8.123 10.133L8.13099 10.139L9.35499 11.205L11.115 9.63301L9.752 8.43901H9.75C8.80036 7.49526 7.51482 6.96724 6.176 6.97101C3.389 6.97001 1.12 9.22901 1.12 12C1.12 14.803 3.39 17.037 6.175 17.037C7.52 17.037 8.793 16.517 9.705 15.605L15.905 10.103L15.911 10.097C16.1613 9.84503 16.4593 9.64547 16.7876 9.51C17.1158 9.37453 17.4679 9.30586 17.823 9.30801C19.316 9.30801 20.532 10.508 20.532 12C20.532 13.492 19.316 14.691 17.823 14.691C17.095 14.691 16.425 14.417 15.876 13.867L15.868 13.861L14.673 12.803L12.88 14.375L14.247 15.558C14.716 16.0283 15.2734 16.4011 15.8872 16.6549C16.5009 16.9088 17.1588 17.0386 17.823 17.037C20.61 17.037 22.878 14.77 22.878 12C22.878 9.23001 20.611 6.96301 17.824 6.96301ZM17.824 7.54301C20.296 7.54301 22.297 9.54701 22.297 12C22.297 14.453 20.296 16.457 17.824 16.457C17.2359 16.4588 16.6532 16.344 16.1098 16.1191C15.5664 15.8942 15.0729 15.5638 14.658 15.147L14.652 15.141L13.765 14.373L14.672 13.578L15.465 14.279L15.467 14.281C15.7741 14.5949 16.1408 14.8443 16.5455 15.0146C16.9502 15.1849 17.3849 15.2728 17.824 15.273C19.631 15.273 21.115 13.809 21.115 12C21.115 10.191 19.631 8.72701 17.824 8.72701C16.947 8.72701 16.12 9.06701 15.502 9.68401L15.5 9.68601L9.302 15.186L9.297 15.192C8.497 15.991 7.371 16.457 6.175 16.457C5.58795 16.4607 5.006 16.3481 4.46274 16.1256C3.91948 15.9031 3.42568 15.5752 3.00988 15.1608C2.59407 14.7463 2.26449 14.2537 2.04018 13.7111C1.81587 13.1686 1.70127 12.5871 1.703 12C1.703 9.54701 3.703 7.55301 6.175 7.55301C7.38 7.55301 8.49499 8.01501 9.34099 8.85301L9.349 8.85901L10.236 9.63701L9.349 10.43L8.535 9.72001C8.22704 9.40639 7.85981 9.15709 7.45467 8.98662C7.04953 8.81615 6.61454 8.72791 6.175 8.72701C4.369 8.72701 2.885 10.191 2.885 12C2.885 13.809 4.369 15.273 6.175 15.273C6.60617 15.2745 7.0334 15.1908 7.43207 15.0265C7.83075 14.8623 8.19301 14.6208 8.498 14.316L14.697 8.81401L14.703 8.80901C15.503 8.00901 16.63 7.54301 17.824 7.54301Z"
    fill="#F57F17"
  />
</svg>

<svg viewBox="0 0 24 24" xmlns="http://www.w3.org/2000/svg"><g style="fill:#f57f17"><path d="M6.176 16.747c1.271 0 2.471-.494 3.327-1.35l6.203-5.506a2.969 2.969 0 0 1 2.118-.873c1.65 0 3 1.332 3 2.982s-1.35 2.982-3 2.982a3 3 0 0 1-2.153-.908l-.997-.883-1.35 1.183 1.129.979c.9.9 2.1 1.394 3.37 1.394 2.63 0 4.765-2.135 4.765-4.747s-2.135-4.747-4.764-4.747c-1.271 0-2.471.494-3.327 1.35l-6.203 5.506a2.969 2.969 0 0 1-2.117.873c-1.65 0-3-1.332-3-2.982s1.35-2.982 3-2.982c.794 0 1.552.308 2.152.908l1.024.892 1.323-1.183-1.129-.988a4.752 4.752 0 0 0-3.37-1.385c-2.63 0-4.765 2.126-4.765 4.738a4.741 4.741 0 0 0 4.764 4.747z" style="color-rendering:auto;color:#000;dominant-baseline:auto;fill:#f57f17;font-feature-settings:normal;font-variant-alternates:normal;font-variant-caps:normal;font-variant-east-asian:normal;font-variant-ligatures:normal;font-variant-numeric:normal;font-variant-position:normal;font-variation-settings:normal;image-rendering:auto;inline-size:0;isolation:auto;mix-blend-mode:normal;shape-margin:0;shape-padding:0;shape-rendering:auto;solid-color:#000;stop-color:#000;text-decoration-color:#000;text-decoration-line:none;text-decoration-style:solid;text-indent:0;text-orientation:mixed;text-transform:none;white-space:normal"/><path d="M17.824 6.963c-1.345 0-2.619.52-3.531 1.432l-.002.001-6.197 5.5-.006.006a2.672 2.672 0 0 1-1.912.79c-1.494 0-2.71-1.2-2.71-2.692s1.216-2.691 2.71-2.691c.718 0 1.398.275 1.947.824l.008.006 1.224 1.066 1.76-1.572-1.363-1.194H9.75a5.05 5.05 0 0 0-3.574-1.468C3.389 6.97 1.12 9.229 1.12 12c0 2.803 2.27 5.037 5.055 5.037 1.345 0 2.618-.52 3.53-1.432l6.2-5.502.006-.006a2.672 2.672 0 0 1 1.912-.789c1.493 0 2.709 1.2 2.709 2.692s-1.216 2.691-2.709 2.691c-.728 0-1.398-.274-1.947-.824l-.008-.006-1.195-1.058-1.793 1.572 1.367 1.183a5.033 5.033 0 0 0 3.576 1.479c2.787 0 5.055-2.267 5.055-5.037s-2.268-5.037-5.055-5.037zm0 .58c2.472 0 4.473 2.004 4.473 4.457s-2.001 4.457-4.473 4.457a4.448 4.448 0 0 1-3.166-1.31l-.006-.006-.887-.768.907-.795.793.701.002.002a3.3 3.3 0 0 0 2.357.992c1.807 0 3.291-1.464 3.291-3.273s-1.484-3.273-3.291-3.273c-.877 0-1.704.34-2.322.957l-.002.002-6.198 5.5-.005.006c-.8.799-1.926 1.265-3.122 1.265A4.444 4.444 0 0 1 1.703 12c0-2.453 2-4.447 4.472-4.447 1.205 0 2.32.462 3.166 1.3l.008.006.887.778-.887.793-.814-.71a3.317 3.317 0 0 0-2.36-.993c-1.806 0-3.29 1.464-3.29 3.273s1.484 3.273 3.29 3.273a3.27 3.27 0 0 0 2.323-.957l6.199-5.502.006-.005c.8-.8 1.926-1.266 3.12-1.266z" style="color-rendering:auto;color:#000;dominant-baseline:auto;fill:#f57f17;font-feature-settings:normal;font-variant-alternates:normal;font-variant-caps:normal;font-variant-east-asian:normal;font-variant-ligatures:normal;font-variant-numeric:normal;font-variant-position:normal;font-variation-settings:normal;image-rendering:auto;inline-size:0;isolation:auto;mix-blend-mode:normal;shape-margin:0;shape-padding:0;shape-rendering:auto;solid-color:#000;stop-color:#000;text-decoration-color:#000;text-decoration-line:none;text-decoration-style:solid;text-indent:0;text-orientation:mixed;text-transform:none;white-space:normal"/></g></svg>
